public/formular-icons/english/upper-z.svg

<svg style="vertical-align:0" xmlns="http://www.w3.org/2000/svg" width="1.636ex" height="1.545ex" viewBox="0 -683 723 683" xmlns:xlink="http://www.w3.org/1999/xlink"><defs><path id="a" d="M58 8q0 15 6 27 0 1 265 299t267 301l-10 2H476q-34 0-56-2t-55-11-54-26-45-50-38-79l-2-6q-1-3-2-5t-1-5-1-3l-1-2q-3-5-19-5-17 0-20 10l32 108q14 45 27 90 8 28 12 30 3 2 234 2h231q5-5 5-8 0-2-6-26Q189 54 188 52l-3-3h89q95 1 103 2 75 9 123 49t79 147q8 25 11 30t13 5h4q21 0 21-11Q547 5 541 2q-3-2-241-2H124Q58 0 58 8Z"/></defs><g stroke="currentColor" fill="currentColor" stroke-width="0"><use data-c="1D44D" xlink:href="#a" transform="scale(1 -1)"/></g></svg>

<svg style="vertical-align: 0" xmlns="http://www.w3.org/2000/svg" width="1.636ex" height="1.545ex" role="img" focusable="false" viewBox="0 -683 723 683" xmlns:xlink="http://www.w3.org/1999/xlink"><defs><path id="MJX-82-TEX-I-1D44D" d="M58 8Q58 23 64 35Q64 36 329 334T596 635L586 637Q575 637 512 637H500H476Q442 637 420 635T365 624T311 598T266 548T228 469Q227 466 226 463T224 458T223 453T222 450L221 448Q218 443 202 443Q185 443 182 453L214 561Q228 606 241 651Q249 679 253 681Q256 683 487 683H718Q723 678 723 675Q723 673 717 649Q189 54 188 52L185 49H274Q369 50 377 51Q452 60 500 100T579 247Q587 272 590 277T603 282H607Q628 282 628 271Q547 5 541 2Q538 0 300 0H124Q58 0 58 8Z"></path></defs><g stroke="currentColor" fill="currentColor" stroke-width="0" transform="scale(1,-1)"><g data-mml-node="math"><g data-mml-node="mi"><use data-c="1D44D" xlink:href="#MJX-82-TEX-I-1D44D"></use></g></g></g></svg>
